X:2947
L:1/8
Q:1/4=120
M:6/4
K:G
 Bc | d3 e d2 (B3 A) G2 | c3 d B2 A4 (EF) | G3 F G2 A2 B2 c2 | ^c3 =c ^c2 d4 e=f | 
 e3 d c2 d2 B2 c2 | A3 B(AG) F4 (Bc) | E3 F G2 (F2 G2) A2 | A3 G F2 G4"^:s:" d2 | B3 c d2 e4 dd | 
 e2 f2 g2 f4 gd | =f2 e2 B2 c4 B2 | A3 G F2 .G4 |]

